src/topics/icons/mixmax.svg

<svg height="203" preserveAspectRatio="xMidYMid" viewBox="0 0 256 203" width="256" xmlns="http://www.w3.org/2000/svg"><path d="m0 202.999h50.731v-202.992h-50.731z" fill="#e55cff"/><path d="m102.6333.0068-102.633 202.992h50.731l102.633-202.992z" fill="#24235c"/><path d="m102.633 202.999h50.731v-202.992h-50.731z" fill="#e55cff"/><path d="m205.2693.0077-102.633 202.992h50.73l102.633-202.992z" fill="#24235c"/><path d="m204.982 202.999h50.731v-202.992h-50.731z" fill="#e55cff"/></svg>

<?xml version="1.0" encoding="UTF-8" standalone="no"?>
<svg width="256px" height="203px" viewBox="0 0 256 203" version="1.1" xmlns="http://www.w3.org/2000/svg" xmlns:xlink="http://www.w3.org/1999/xlink" preserveAspectRatio="xMidYMid">
	<g>
		<path d="M0,202.999 L50.731,202.999 L50.731,0.007 L0,0.007 L0,202.999 Z" fill="#E55CFF"></path>
		<path d="M102.6333,0.0068 L0.0003,202.9988 L50.7313,202.9988 L153.3643,0.0068 L102.6333,0.0068 Z" fill="#24235C"></path>
		<path d="M102.633,202.999 L153.364,202.999 L153.364,0.007 L102.633,0.007 L102.633,202.999 Z" fill="#E55CFF"></path>
		<path d="M205.2693,0.0077 L102.6363,202.9997 L153.3663,202.9997 L255.9993,0.0077 L205.2693,0.0077 Z" fill="#24235C"></path>
		<path d="M204.982,202.999 L255.713,202.999 L255.713,0.007 L204.982,0.007 L204.982,202.999 Z" fill="#E55CFF"></path>
	</g>
</svg>
